X:2012
T:The College Hornpipe
P:Jolly Tars
C:Traditional (Kerr's Coll.)
R:Reel (8x32)
B:RSCDS 20-12
Z:Anselm Lingnau <anselm@strathspey.org>
M:C
L:1/8
K:F
cB|"F"AFAc "Bb"dBdf|"C"eceg "Dm"f2 fe|"Bb"dfed "F"cAfe|"Bb"dcBA "C7"[G2E2] cB|
   "F"AFAc "Bb"dBdf|"C"eceg "Dm"f2 fe|"Bb"db"G/B"ag "C7"fede|"F"f2"Bb"f2"F"f2||
gf|"C"eceg "C7"b2 ag|"F"fcfa c'2 ba|"b"g^f"a"ga "G"bag=f|"C7"e2 c2 c2 cB|
   "F"AFAc "Bb"dBdf|"C"eceg "Dm"f2 fe|"Bb"db"G/B"ag "C7"fede|"F"f2 [c2E2] F2|]
